X:1
T:Lobe den Herrn, meine Seele
T:Lobe den Herrn, meine Seele
%%score ( 1 2 ) 3
L:1/8
M:6/8
K:F
V:1 treble nm="Piano"
V:2 treble 
V:3 bass nm="Klavier"
V:1
 CFG [CFA]GF | [B,DG]3 [B,D]3 | CEF [CEG]AB | [DFB]3 [CFA]3 | CFG [CFA]GF | [B,DG]3 [B,D]3 | %6
 [CD]EF [CG]FE | [B,DF]CB, [A,CF]3 | c3 c3 | [Gc]BA [GB]3 | [Ec]GA [GB]cd | [FBd]3 [FAc]3 | c3 c3 | %13
 [Gc]BA [GB]3 | [Ec]GA [EB]AG | F3 F3!fine! :| EAB cBA | A2 ^G G3 | E=Bc [Bd]cB | %19
 [E=B]2 [EA] [EA]3 | [DF]GA [G=B]cd | [CE]FG [EA]=Bc | dc_B BAG | c3 c3!D.C.! |] %24
V:2
 x6 | x6 | x6 | x6 | x6 | x6 | x6 | x6 | FFG AGF | x6 | x6 | x6 | FFG AGF | x6 | x6 | %15
 [B,D][A,C][G,B,] [A,C]3 :| C3 E3 | E3 E3 | x6 | x6 | x6 | x6 | x6 | CDF E3 |] %24
V:3
!ped! F,2 C, F,,3!ped-up! |!ped! G,,D,G,- G,D,G,,!ped-up! |!ped! C,3 C,,2 C,!ped-up! | %3
!ped! F,,C,F,- F,C,F,,!ped-up! |!ped! F,2 C, F,,3!ped-up! |!ped! G,,D,G,- G,D,G,,!ped-up! | %6
!ped! C,3 C,,3!ped-up! |!ped! C,3 F,,3!ped-up! |!ped! F,2 C, F,,3!ped-up! | %9
!ped! G,,D,G,- G,D,G,,!ped-up! |!ped! C,3 C,,2 C,!ped-up! |!ped! F,,C,F,- F,C,F,,!ped-up! | %12
!ped! F,2 C, F,,3!ped-up! |!ped! G,,D,G,- G,D,G,,!ped-up! |!ped! C,3 C,,3!ped-up! | %15
!ped! C,3 F,,3!ped-up! :|!ped! A,3 A,,3!ped-up! |!ped! E,3 E,,3!ped-up! |!ped! E,3 ^G,3!ped-up! | %19
!ped! A,3 A,,=B,,C,!ped-up! |!ped! D,3 G,,3!ped-up! |!ped! C,3 F,,3!ped-up! | %22
!ped! B,,3 G,,3!ped-up! |!ped! (C,3 C,)D,E,!ped-up! |] %24

